!!!!SEGMENT: pl-stab--27c--001-006_nowakiewicz-kazimierz--missa-in-b-sanctus.krn
!!!cenid: 18xx:3455
!!!COM: Nowakiewicz, Kazimierz
!!!COM-rismID: pe30020309
!!!CDT: <1800->1824
!!!CNT: Polish
!!!OPR: Missa in B
!!!OTL: Sanctus
!!!OMV: 006
!!!PDT:
!!!AGN: Sacred; Mass
!!!YEC: Copyright 2022 Narodowy Instytut Fryderyka Chopina (https://polishscores.org)
!!!YEM: License CC-BY-4.0 (https://creativecommons.org/licenses/by/4.0)
!!!SMS-siglum: PL-STAb
!!!SMS-shelfmark: 27c
!!!SMS-shelfwork: 001-006 M
!!!SMS-variant:
!!!SMS-altvar:
!!!NIFC-rismSourceID: 301050705
!!!NIFC-rismChildID: 301050705
!!!NIFC-islandoraID: pl-stab:3750
!!!URL-pdf-islandora: https://repozytorium.nifc.pl/islandora/object/pl-stab%3A3750/datastream/PDF/view
!!!URL-scan: https://polish.musicsources.pl/pl/lokalizacje/galeria/rekopisy/4473 @EN{Scan on Polish Music Sources Website} @PL{Skany w portalu Dziedzictwo Muzyki Polskiej w otwartym dostępie}
!!!IIIF:
!!!ONB-nifc: UWAGA: części Mszy: 1. Kyrie, 2. Gloria, 3. Credo, 4. Et incarnatus, 5. Et resurrexit, 6. Sanctus, 7. Pleni sunt, 8. Benedictus, 9. Agnus Dei, 10. Dona nobis
!!!AIN: 1 alto 1 bass 2 clarb 2 cor 1 organ 1 soprn 1 tenor 2 violn
!!!key: B-
!!!OMD:
!!!OMD-mod: Adagio
**kern	**fba	**dynam	**mod-dynam	**kern	**dynam	**kern	**dynam	**mod-dynam	**kern	**text	**dynam	**mod-dynam	**kern	**dynam	**text	**mod-text	**kern	**text	**dynam	**mod-dynam	**kern	**text	**dynam	**kern	**dynam	**mod-dynam	**kern	**dynam	**kern	**dynam	**kern	**dynam
*	*	*	*	*group4	*	*group4	*	*	*group3	*	*	*	*group3	*	*	*	*group3	*	*	*	*group3	*	*	*group2	*	*	*group2	*	*group1	*	*group1	*
*part11	*	*	*	*part10	*	*part9	*	*	*part8	*	*	*	*part7	*	*	*	*part6	*	*	*	*part5	*	*	*part4	*	*	*part3	*	*part2	*	*part1	*
*staff11	*	*	*	*staff10	*	*staff9	*	*	*staff8	*	*	*	*staff7	*	*	*	*staff6	*	*	*	*staff5	*	*	*staff4	*	*	*staff3	*	*staff2	*	*staff1	*
*I"Organo	*	*	*	*I"Violino Secundo	*	*I"Violino Primo	*	*	*I"Baſso	*	*	*	*I"Tenore	*	*	*	*I"Alto	*	*	*	*I"Canto	*	*	*I"Cornu Secundo in B	*	*	*I"Cornu Primo in B	*	*I"Clarinetto in Secundo in B.	*	*I"Clarinetto Primo in B.	*
*mI"Organo	*	*	*	*mI"Violino II	*	*mI"Violino I	*	*	*mI"Basso	*	*	*	*mI"Tenore	*	*	*	*	*	*	*	*mI"Soprano	*	*	*mI"Corno II in B	*	*	*mI"Corno I in B	*	*mI"Clarinetto II in B	*	*mI"Clarinetto I in B	*
*I'org	*	*	*	*I'vl 2	*	*I'vl 1	*	*	*I'B	*	*	*	*I'T	*	*	*	*I'A	*	*	*	*I'S	*	*	*I'cor 2 in B|b	*	*	*I'cor 1 in B|b	*	*I'cl 2 in B|b	*	*I'cl 1 in B|b	*
*Iorgan	*	*	*	*Ivioln	*	*Ivioln	*	*	*Ibass	*	*	*	*Itenor	*	*	*	*Ialto	*	*	*	*Isoprn	*	*	*Icor	*	*	*Icor	*	*Iclarb	*	*Iclarb	*
*ICklav	*	*	*	*ICstr	*	*ICstr	*	*	*ICvox	*	*	*	*ICvox	*	*	*	*ICvox	*	*	*	*ICvox	*	*	*ICbras	*	*	*ICbras	*	*ICww	*	*ICww	*
*IGcont	*	*	*	*IGacmp	*	*IGacmp	*	*	*IGcoro	*	*	*	*IGcoro	*	*	*	*IGcoro	*	*	*	*IGcoro	*	*	*IGacmp	*	*	*IGacmp	*	*IGacmp	*	*IGacmp	*
*clefF4	*	*	*	*clefG2	*	*clefG2	*	*	*clefF4	*	*	*	*clefC4	*	*	*	*clefC3	*	*	*	*clefC1	*	*	*clefG2	*	*	*clefG2	*	*clefG2	*	*clefG2	*
*	*	*	*	*	*	*	*	*	*	*	*	*	*mclefGv2	*	*	*	*mclefG2	*	*	*	*mclefG2	*	*	*	*	*	*	*	*	*	*	*
*	*	*	*	*	*	*	*	*	*	*	*	*	*	*	*	*	*	*	*	*	*	*	*	*ITrd1c2	*	*	*ITrd1c2	*	*ITrd1c2	*	*ITrd1c2	*
*k[e-b-]	*	*	*	*k[b-e-]	*	*k[b-e-]	*	*	*k[b-e-]	*	*	*	*k[e-b-]	*	*	*	*k[e-b-]	*	*	*	*k[b-e-]	*	*	*k[b-e-]	*	*	*k[b-e-]	*	*k[b-e-]	*	*k[b-e-]	*
*B-:	*	*	*	*B-:	*	*B-:	*	*	*B-:	*	*	*	*B-:	*	*	*	*B-:	*	*	*	*B-:	*	*	*B-:	*	*	*B-:	*	*B-:	*	*B-:	*
*M4/4	*	*	*	*M4/4	*	*M4/4	*	*	*M4/4	*	*	*	*M4/4	*	*	*	*M4/4	*	*	*	*M4/4	*	*	*M4/4	*	*	*M4/4	*	*M4/4	*	*M4/4	*
*met(c.)	*	*	*	*met(c.)	*	*met(c.)	*	*	*met(c)	*	*	*	*met(c.)	*	*	*	*met(c.)	*	*	*	*met(c.)	*	*	*met(c.)	*	*	*met(c.)	*	*met(c)	*	*met(c.)	*
*MM50	*	*	*	*MM50	*	*MM50	*	*	*MM50	*	*	*	*MM50	*	*	*	*MM50	*	*	*	*MM50	*	*	*MM50	*	*	*MM50	*	*MM50	*	*MM50	*
=1	=1	=1	=1	=1	=1	=1	=1	=1	=1	=1	=1	=1	=1	=1	=1	=1	=1	=1	=1	=1	=1	=1	=1	=1	=1	=1	=1	=1	=1	=1	=1	=1
!	!	!	!	!	!LO:MO:mod=!null:null	!	!	!	!	!	!	!	!	!	!	!	!	!	!	!	!	!	!	!	!	!	!	!	!	!	!	!
!LO:TX:a:rj:t=adagio:mod=	!	!	!	!LO:TX:a:rj:t=adagio:mod=	!LO:DY:t=p.	!LO:TX:a:rj:t=adgio:mod=	!	!	!LO:TX:a:rj:t=adagio:mod=	!	!	!	!LO:TX:a:rj:t=adagio:mod=	!	!	!	!LO:TX:a:rj:t=adagio:mod=	!	!	!	!LO:TX:a:rj:t=adagio:mod=	!	!	!LO:TX:a:rj:t=adagio:mod=	!	!	!LO:TX:a:rj:t=adagio:mod=	!	!LO:TX:a:rj:t=adagio:mod=	!	!LO:TX:a:rj:t=adagio:mod=	!LO:DY:a:rj:t=p.
!	!	!	!	!	!	!	!	!	!	!	!	!	!	!	!	!	!	!	!	!	!	!	!	!	!	!	!	!	!	!	!	!LO:MO:mod=!null:null
!	!	!	!	!	!	!	!	!LO:DY:t= :mod=%s	!	!	!	!	!	!	!	!	!	!	!	!	!	!	!	!	!	!	!	!	!	!	!	!
!	!	!	!	!	!	!	!	!LO:MO:mod=!LO&colon;DY&colon;ed=brack	!	!	!	!	!	!	!	!	!	!	!	!	!	!	!	!	!	!	!	!	!	!	!	!
!	!	!	!	!	!	!	!	!null	!	!	!	!	!	!	!	!	!	!	!	!	!	!	!	!	!	!	!	!	!	!	!	!
8B-\	.	.	.	2f/	p	(16dd\LL	.	p	2r	.	.	.	2r	.	.	.	2r	.	.	.	2r	.	.	2r	.	.	2r	.	2r	.	2r	p
!	!	!	!	!	!	!	!	!	!	!	!	!	!	!	!	!	!	!	!	!	!	!	!LO:MO:mod=!null:null	!	!	!	!	!	!	!	!	!
.	.	.	.	.	.	16ff\)	.	.	.	.	.	.	.	.	.	.	.	.	.	.	.	.	p	.	.	.	.	.	.	.	.	.
8r	.	.	.	.	.	16ff\|	.	.	.	.	.	.	.	.	.	.	.	.	.	.	.	.	.	.	.	.	.	.	.	.	.	.
.	.	.	.	.	.	16ff\JJ|	.	.	.	.	.	.	.	.	.	.	.	.	.	.	.	.	.	.	.	.	.	.	.	.	.	.
8d\	6	.	.	.	.	16r	.	.	.	.	.	.	.	.	.	.	.	.	.	.	.	.	.	.	.	.	.	.	.	.	.	.
.	.	.	.	.	.	16ff|\LL	.	.	.	.	.	.	.	.	.	.	.	.	.	.	.	.	.	.	.	.	.	.	.	.	.	.
8r	.	.	.	.	.	(16een\	.	.	.	.	.	.	.	.	.	.	.	.	.	.	.	.	.	.	.	.	.	.	.	.	.	.
.	.	.	.	.	.	16ff\JJ)	.	.	.	.	.	.	.	.	.	.	.	.	.	.	.	.	.	.	.	.	.	.	.	.	.	.
*	*	*	*	*	*	*	*	*	*2\right	*	*	*	*2\right	*	*	*	*2\right	*	*	*	*2\right	*	*	*	*	*	*	*	*2\right	*	*2\right	*
!	!	!	!	!	!	!	!	!	!	!	!	!	!	!LO:MO:mod=!null:null	!	!	!	!	!	!	!	!	!	!	!	!	!	!	!	!	!	!
!	!	!	!	!	!	!	!	!	!	!	!	!	!	!LO:DY:t=p.	!	!	!	!	!	!	!	!	!	!	!	!	!	!LO:DY:a:t=p.	!	!LO:DY:a:rj:t=p.	!	!
!	!	!	!	!	!	!	!	!	!	!	!	!LO:DY:t= :mod=%s	!	!	!	!	!	!	!	!LO:DY:t= :mod=%s	!	!	!LO:MO:mod=!null:null	!	!	!LO:DY:t= :mod=%s	!	!	!	!	!	!LO:DY:t= :mod=%s
!	!	!	!	!	!	!	!	!	!	!	!	!LO:MO:mod=!LO&colon;DY&colon;ed=brack	!	!	!	!	!	!	!	!LO:MO:mod=!LO&colon;DY&colon;ed=brack	!	!	!O:MO:mod=!LO&colon;DY&colon;ed=	!	!	!LO:MO:mod=!LO&colon;DY&colon;ed=brack	!	!	!	!	!	!LO:MO:mod=!LO&colon;DY&colon;ed=
!	!	!	!	!	!	!	!	!	!	!	!	!null	!	!	!	!	!	!	!	!null	!	!	!null	!	!	!null	!	!	!	!	!	!null
8A\	6 5	.	.	2f/	.	(16ff\LL	.	.	2A\	San-	.	p	2c\	p	San-	San-	2f\	San-	.	p	2ee-\	San-	p	8f/	.	p	8cc\	p	2cc\	p	2ee-\	p
.	.	.	.	.	.	16ee-X\)	.	.	.	.	.	.	.	.	.	.	.	.	.	.	.	.	.	.	.	.	.	.	.	.	.	.
8r	.	.	.	.	.	16ee-|\	.	.	.	.	.	.	.	.	.	.	.	.	.	.	.	.	.	8r	.	.	8r	.	.	.	.	.
.	.	.	.	.	.	16ee-|\JJ	.	.	.	.	.	.	.	.	.	.	.	.	.	.	.	.	.	.	.	.	.	.	.	.	.	.
8F\	.	.	.	.	.	16r	.	.	.	.	.	.	.	.	.	.	.	.	.	.	.	.	.	8f/	.	.	8cc\	.	.	.	.	.
.	.	.	.	.	.	16ee-|\LL	.	.	.	.	.	.	.	.	.	.	.	.	.	.	.	.	.	.	.	.	.	.	.	.	.	.
8r	.	.	.	.	.	(16dd\	.	.	.	.	.	.	.	.	.	.	.	.	.	.	.	.	.	8r	.	.	8r	.	.	.	.	.
.	.	.	.	.	.	16ee-\JJ)	.	.	.	.	.	.	.	.	.	.	.	.	.	.	.	.	.	.	.	.	.	.	.	.	.	.
=2	=2	=2	=2	=2	=2	=2	=2	=2	=2	=2	=2	=2	=2	=2	=2	=2	=2	=2	=2	=2	=2	=2	=2	=2	=2	=2	=2	=2	=2	=2	=2	=2
!	!	!	!	!	!	!	!	!	!	!LO:MO:mod=-ctus,	!	!	!	!	!	!	!	!LO:MO:mod=-ctus,	!	!	!	!LO:MO:mod=-ctus,	!	!	!	!	!	!	!	!	!	!
8B-\	.	.	.	1f	.	(16dd\LL	.	.	8B-\	-ctus	.	.	8B-\	.	-ctus	-ctus,	8f\	-ctus	.	.	8dd\	-ctus	.	8b-\	.	.	8dd\	.	8b-\	.	8dd\	.
.	.	.	.	.	.	16ff\)	.	.	.	.	.	.	.	.	.	.	.	.	.	.	.	.	.	.	.	.	.	.	.	.	.	.
8r	.	.	.	.	.	16ff|\	.	.	8r	.	.	.	8r	.	.	.	8r	.	.	.	8r	.	.	8r	.	.	8r	.	8r	.	8r	.
.	.	.	.	.	.	16ff|\JJ	.	.	.	.	.	.	.	.	.	.	.	.	.	.	.	.	.	.	.	.	.	.	.	.	.	.
8d\	6	.	.	.	.	16r	.	.	4r	.	.	.	4r	.	.	.	4r	.	.	.	4r	.	.	4r	.	.	4r	.	4r	.	4r	.
.	.	.	.	.	.	16ff|\LL	.	.	.	.	.	.	.	.	.	.	.	.	.	.	.	.	.	.	.	.	.	.	.	.	.	.
8r	.	.	.	.	.	(16een\	.	.	.	.	.	.	.	.	.	.	.	.	.	.	.	.	.	.	.	.	.	.	.	.	.	.
.	.	.	.	.	.	16ff\JJ)	.	.	.	.	.	.	.	.	.	.	.	.	.	.	.	.	.	.	.	.	.	.	.	.	.	.
*	*	*	*	*	*	*	*	*	*	*ij	*	*	*	*	*ij	*ij	*	*ij	*	*	*	*ij	*	*	*	*	*	*	*	*	*	*
8A\	6 5	.	.	.	.	(16ff\LL	.	.	2A\	San-	.	.	2c\	.	San-	San-	2f\	San-	.	.	2ee-\	San-	.	8f/	.	.	8cc\	.	2cc\	.	2ee-\	.
.	.	.	.	.	.	16ee-X\)	.	.	.	.	.	.	.	.	.	.	.	.	.	.	.	.	.	.	.	.	.	.	.	.	.	.
8r	.	.	.	.	.	16ee-|\	.	.	.	.	.	.	.	.	.	.	.	.	.	.	.	.	.	8r	.	.	8r	.	.	.	.	.
.	.	.	.	.	.	16ee-|\JJ	.	.	.	.	.	.	.	.	.	.	.	.	.	.	.	.	.	.	.	.	.	.	.	.	.	.
8F\	.	.	.	.	.	16r	.	.	.	.	.	.	.	.	.	.	.	.	.	.	.	.	.	8f/	.	.	8cc\	.	.	.	.	.
.	.	.	.	.	.	16ee-|\LL	.	.	.	.	.	.	.	.	.	.	.	.	.	.	.	.	.	.	.	.	.	.	.	.	.	.
8r	.	.	.	.	.	(16dd\	.	.	.	.	.	.	.	.	.	.	.	.	.	.	.	.	.	8r	.	.	8r	.	.	.	.	.
.	.	.	.	.	.	16ee-\JJ)	.	.	.	.	.	.	.	.	.	.	.	.	.	.	.	.	.	.	.	.	.	.	.	.	.	.
!	!	!	!	!	!	!LO:LB:g=original	!	!	!	!	!	!	!	!	!	!	!	!	!	!	!	!	!	!	!	!	!	!	!	!	!	!
=3	=3	=3	=3	=3	=3	=3	=3	=3	=3	=3	=3	=3	=3	=3	=3	=3	=3	=3	=3	=3	=3	=3	=3	=3	=3	=3	=3	=3	=3	=3	=3	=3
!	!	!	!	!	!	!	!	!	!	!LO:MO:mod=-ctus,	!	!	!	!	!	!	!	!LO:MO:mod=-ctus,	!	!	!	!LO:MO:mod=-ctus,	!	!	!	!	!	!	!	!	!	!
8B-\	.	.	.	4f/	.	16dd\LL	.	.	8B-\	-ctus	.	.	8B-\	.	-ctus	-ctus,	8f\	-ctus	.	.	8dd\	-ctus	.	8b-\	.	.	8dd\	.	8b-\	.	8dd\	.
.	.	.	.	.	.	16bb-\	.	.	.	.	.	.	.	.	.	.	.	.	.	.	.	.	.	.	.	.	.	.	.	.	.	.
8r	.	.	.	.	.	16bb-\	.	.	8r	.	.	.	8r	.	.	.	8r	.	.	.	8r	.	.	8r	.	.	8r	.	8r	.	8r	.
.	.	.	.	.	.	16bb-\JJ	.	.	.	.	.	.	.	.	.	.	.	.	.	.	.	.	.	.	.	.	.	.	.	.	.	.
*	*	*	*	*2\right	*	*	*	*	*	*	*	*	*	*	*	*	*	*	*	*	*	*	*	*	*	*	*	*	*	*	*	*
8D\	6	.	.	2b-\	.	16r	.	.	4r	.	.	.	4r	.	.	.	4r	.	.	.	4r	.	.	4r	.	.	4r	.	4r	.	4r	.
.	.	.	.	.	.	16bb-\LL	.	.	.	.	.	.	.	.	.	.	.	.	.	.	.	.	.	.	.	.	.	.	.	.	.	.
8r	.	.	.	.	.	16gg\	.	.	.	.	.	.	.	.	.	.	.	.	.	.	.	.	.	.	.	.	.	.	.	.	.	.
.	.	.	.	.	.	16bb-\JJ	.	.	.	.	.	.	.	.	.	.	.	.	.	.	.	.	.	.	.	.	.	.	.	.	.	.
8D\	.	.	.	.	.	16bb-\LL	.	.	2D\	San-	.	.	2B-\	.	San-	San-	2f\	San-	.	.	2a-X\	San-	.	2r	.	.	2r	.	2ff\	.	2aa-X\	.
.	.	.	.	.	.	16aa-X\	.	.	.	.	.	.	.	.	.	.	.	.	.	.	.	.	.	.	.	.	.	.	.	.	.	.
8r	.	.	.	.	.	16aa-\	.	.	.	.	.	.	.	.	.	.	.	.	.	.	.	.	.	.	.	.	.	.	.	.	.	.
.	.	.	.	.	.	16aa-\JJ	.	.	.	.	.	.	.	.	.	.	.	.	.	.	.	.	.	.	.	.	.	.	.	.	.	.
8BB-/	-7	.	.	4b-\	.	16r	.	.	.	.	.	.	.	.	.	.	.	.	.	.	.	.	.	.	.	.	.	.	.	.	.	.
.	.	.	.	.	.	16aa-\LL	.	.	.	.	.	.	.	.	.	.	.	.	.	.	.	.	.	.	.	.	.	.	.	.	.	.
8r	.	.	.	.	.	16gg\	.	.	.	.	.	.	.	.	.	.	.	.	.	.	.	.	.	.	.	.	.	.	.	.	.	.
.	.	.	.	.	.	16aa-\JJ	.	.	.	.	.	.	.	.	.	.	.	.	.	.	.	.	.	.	.	.	.	.	.	.	.	.
=4	=4	=4	=4	=4	=4	=4	=4	=4	=4	=4	=4	=4	=4	=4	=4	=4	=4	=4	=4	=4	=4	=4	=4	=4	=4	=4	=4	=4	=4	=4	=4	=4
!	!	!	!	!	!	!	!	!	!	!LO:MO:mod=-ctus,	!	!	!	!	!	!	!	!LO:MO:mod=-ctus,	!	!	!	!LO:MO:mod=-ctus,	!	!	!	!	!	!	!	!	!	!
!	!	!	!	!	!	!LO:SIC:o=16aa\LL:v	!	!	!	!	!	!	!	!	!	!	!	!	!	!	!	!	!	!	!	!	!	!	!	!	!	!
8E-\	.	.	.	8b-\	.	16bb-\LL	.	.	8E-\	-ctus	.	.	8B-\	.	-ctus	-ctus,	8e-\	-ctus	.	.	8g\	-ctus	.	1r	.	.	1r	.	8ee-\	.	8gg\	.
*	*	*	*	*	*	*	*	*	*	*Xij	*	*	*	*	*Xij	*Xij	*	*Xij	*	*	*	*Xij	*	*	*	*	*	*	*	*	*	*
.	.	.	.	.	.	16gg\	.	.	.	.	.	.	.	.	.	.	.	.	.	.	.	.	.	.	.	.	.	.	.	.	.	.
8r	.	.	.	8r	.	16gg\	.	.	8r	.	.	.	8r	.	.	.	8r	.	.	.	8r	.	.	.	.	.	.	.	8r	.	8r	.
.	.	.	.	.	.	16gg\JJ	.	.	.	.	.	.	.	.	.	.	.	.	.	.	.	.	.	.	.	.	.	.	.	.	.	.
*	*	*	*	*	*	*2\right	*	*	*	*	*	*	*	*	*	*	*	*	*	*	*	*	*	*	*	*	*	*	*	*	*	*
!LO:LB:g=original	!	!	!	!	!	!	!	!	!	!	!	!	!	!	!	!	!	!	!	!	!	!	!	!	!	!	!	!	!	!	!	!
8G\	5	.	.	16r	.	2.gg\	.	.	4r	.	.	.	4r	.	.	.	4r	.	.	.	4r	.	.	.	.	.	.	.	4r	.	4r	.
.	.	.	.	16dd|\LL	.	.	.	.	.	.	.	.	.	.	.	.	.	.	.	.	.	.	.	.	.	.	.	.	.	.	.	.
8r	.	.	.	(16dd\	.	.	.	.	.	.	.	.	.	.	.	.	.	.	.	.	.	.	.	.	.	.	.	.	.	.	.	.
.	.	.	.	16ff\JJ)	.	.	.	.	.	.	.	.	.	.	.	.	.	.	.	.	.	.	.	.	.	.	.	.	.	.	.	.
8C/	-	.	.	(16ff\LL	.	.	.	.	2r	.	.	.	2r	.	.	.	2r	.	.	.	2r	.	.	.	.	.	.	.	2r	.	2r	.
.	.	.	.	16ee-\)	.	.	.	.	.	.	.	.	.	.	.	.	.	.	.	.	.	.	.	.	.	.	.	.	.	.	.	.
8r	.	.	.	16ee-|\	.	.	.	.	.	.	.	.	.	.	.	.	.	.	.	.	.	.	.	.	.	.	.	.	.	.	.	.
.	.	.	.	16ee-|\JJ	.	.	.	.	.	.	.	.	.	.	.	.	.	.	.	.	.	.	.	.	.	.	.	.	.	.	.	.
8G\	5	.	.	16r	.	.	.	.	.	.	.	.	.	.	.	.	.	.	.	.	.	.	.	.	.	.	.	.	.	.	.	.
.	.	.	.	16b-|\LL	.	.	.	.	.	.	.	.	.	.	.	.	.	.	.	.	.	.	.	.	.	.	.	.	.	.	.	.
8r	.	.	.	(16b-\	.	.	.	.	.	.	.	.	.	.	.	.	.	.	.	.	.	.	.	.	.	.	.	.	.	.	.	.
.	.	.	.	16dd\JJ)	.	.	.	.	.	.	.	.	.	.	.	.	.	.	.	.	.	.	.	.	.	.	.	.	.	.	.	.
=5	=5	=5	=5	=5	=5	=5	=5	=5	=5	=5	=5	=5	=5	=5	=5	=5	=5	=5	=5	=5	=5	=5	=5	=5	=5	=5	=5	=5	=5	=5	=5	=5
!	!	!	!	!	!	!	!	!	!	!	!	!	!	!	!	!	!	!	!	!	!	!	!	!	!	!	!	!	!	!	!	!LO:DY:a:t=for
!	!	!	!	!	!	!	!	!	!	!	!	!	!	!	!	!	!	!	!	!	!	!	!	!	!	!	!	!	!	!	!	!LO:MO:mod=!null:null
!	!	!	!	!LO:SIC:o=(16dd\LL:v	!	!	!	!	!	!	!	!	!	!	!	!	!	!	!	!	!	!	!	!	!	!	!	!	!	!	!	!
8C/	-	.	.	(16ee-\LL	.	4gg\	.	.	2r	.	.	.	2r	.	.	.	2r	.	.	.	2r	.	.	2r	.	.	2r	.	2r	.	2r	f
.	.	.	.	16cc\)	.	.	.	.	.	.	.	.	.	.	.	.	.	.	.	.	.	.	.	.	.	.	.	.	.	.	.	.
8r	.	.	.	16cc|\	.	.	.	.	.	.	.	.	.	.	.	.	.	.	.	.	.	.	.	.	.	.	.	.	.	.	.	.
.	.	.	.	16cc|\JJ	.	.	.	.	.	.	.	.	.	.	.	.	.	.	.	.	.	.	.	.	.	.	.	.	.	.	.	.
8C/	.	.	.	4cc\	.	16r	.	.	.	.	.	.	.	.	.	.	.	.	.	.	.	.	.	.	.	.	.	.	.	.	.	.
.	.	.	.	.	.	16gg\LL	.	.	.	.	.	.	.	.	.	.	.	.	.	.	.	.	.	.	.	.	.	.	.	.	.	.
8r	.	.	.	.	.	16ff\	.	.	.	.	.	.	.	.	.	.	.	.	.	.	.	.	.	.	.	.	.	.	.	.	.	.
.	.	.	.	.	.	16bb-\JJ	.	.	.	.	.	.	.	.	.	.	.	.	.	.	.	.	.	.	.	.	.	.	.	.	.	.
!LO:TX:t=P:problem=mixed beam	!	!	!	!LO:LB:g=original	!	!	!	!	!	!	!	!	!	!	!	!	!	!	!	!	!	!	!LO:DY:rj:t=for	!	!	!	!	!	!	!	!	!
!	!	!	!	!	!LO:DY:t= :mod=%s	!	!	!LO:DY:t= :mod=%s	!	!	!	!LO:DY:t= :mod=%s	!	!LO:DY:t= :mod=%s	!	!	!	!	!	!LO:DY:t= :mod=%s	!	!	!	!	!	!	!	!	!	!LO:DY:t= :mod=%s	!	!LO:DY:t= :mod=%s
!	!	!	!	!	!LO:MO:mod=!LO&colon;DY&colon;ed=	!	!	!LO:MO:mod=!LO&colon;DY&colon;ed=brack	!	!	!	!LO:MO:mod=!LO&colon;DY&colon;ed=brack	!	!LO:MO:mod=!LO&colon;DY&colon;ed=brack	!	!	!	!	!	!LO:MO:mod=!LO&colon;DY&colon;ed=brack	!	!	!	!	!	!	!	!	!	!LO:MO:mod=!LO&colon;DY&colon;ed=	!	!LO:MO:mod=!LO&colon;DY&colon;ed=
!	!	!	!	!	!null	!	!	!null	!	!	!	!null	!	!null	!	!	!	!	!	!null	!	!	!	!	!	!	!	!	!	!null	!	!null
8FF/L	.	.	.	(16cc\LL	f	16aa\LL	.	f	4F\	Do-	.	f	4A\	f	Do-	Do-	4f\	Do-	.	f	4cc\	Do-	f	4f/	.	.	4cc\	.	2a\	f	4.ff\	f
.	.	.	.	16a\)	.	16ff\	.	.	.	.	.	.	.	.	.	.	.	.	.	.	.	.	.	.	.	.	.	.	.	.	.	.
8F\	.	.	.	16a|\	.	16ff\	.	.	.	.	.	.	.	.	.	.	.	.	.	.	.	.	.	.	.	.	.	.	.	.	.	.
.	.	.	.	16a|\JJ	.	16ff\JJ	.	.	.	.	.	.	.	.	.	.	.	.	.	.	.	.	.	.	.	.	.	.	.	.	.	.
8F\	.	.	.	4a\	.	16ff\LL	.	.	8F\	-mi-	.	.	8A\	.	-mi-	-mi-	8f\	-mi-	.	.	8cc\	-mi-	.	8f/L	.	.	8cc\L	.	.	.	.	.
!	!	!	!	!	!	!LO:SIC:o=16ee-X\:v	!	!	!	!	!	!	!	!	!	!	!	!	!	!	!	!	!	!	!	!	!	!	!	!	!	!
.	.	.	.	.	.	16ee-\	.	.	.	.	.	.	.	.	.	.	.	.	.	.	.	.	.	.	.	.	.	.	.	.	.	.
!	!	!	!	!	!	!	!	!	!	!	!	!	!	!	!	!	!	!	!	!	!LO:SIC:o=8ee-X\:v	!	!	!	!	!	!	!	!	!	!	!
8F\J	-7	.	.	.	.	16dd\	.	.	8F\	-nus	.	.	8c\	.	-nus	-nus	8f\	-nus	.	.	8ee-\	-nus	.	8f/J	.	.	8cc\J	.	.	.	8ee-X\	.
.	.	.	.	.	.	16ee-\JJ	.	.	.	.	.	.	.	.	.	.	.	.	.	.	.	.	.	.	.	.	.	.	.	.	.	.
!!LO:MO:ori
=6	=6	=6	=6	=6	=6	=6	=6	=6	=6	=6	=6	=6	=6	=6	=6	=6	=6	=6	=6	=6	=6	=6	=6	=6	=6	=6	=6	=6	=6	=6	=6	=6
*tremolo	*	*	*	*tremolo	*	*	*	*	*	*	*	*	*	*	*	*	*	*	*	*	*	*	*	*	*	*	*	*	*	*	*	*
*2\right	*	*	*	*	*	*	*	*	*	*	*	*	*	*	*	*	*	*	*	*	*	*	*	*	*	*	*	*	*	*	*	*
!	!	!	!	!	!LO:DY:t=for	!	!	!	!	!	!	!	!	!	!	!	!	!	!	!	!	!	!	!	!	!	!	!	!	!LO:DY:a:rj:t=for	!	!
8F\L	6 4	.	.	8b-\L	f	(16ee-\LL	.	.	4F\	De-	.	.	4B-\	.	De-	De-	4f\	De-	.	.	4dd\	De-	.	8b-\	.	.	8dd\	.	4b-\	f	4dd\	.
.	.	.	.	.	.	16dd\)	.	.	.	.	.	.	.	.	.	.	.	.	.	.	.	.	.	.	.	.	.	.	.	.	.	.
8F\	.	.	.	8b-\	.	16dd|\	.	.	.	.	.	.	.	.	.	.	.	.	.	.	.	.	.	8r	.	.	8r	.	.	.	.	.
.	.	.	.	.	.	16dd|\JJ	.	.	.	.	.	.	.	.	.	.	.	.	.	.	.	.	.	.	.	.	.	.	.	.	.	.
8F\	.	.	.	8b-\	.	16dd|\LL	.	.	4F\	-us	.	.	4B-\	.	-us	-us	4f\	-us	.	.	4dd\	-us	.	4r	.	.	8dd\	.	4dd\	.	4ff\	.
.	.	.	.	.	.	16ff|\	.	.	.	.	.	.	.	.	.	.	.	.	.	.	.	.	.	.	.	.	.	.	.	.	.	.
8F\J	.	.	.	8b-\J	.	(16bb-\	.	.	.	.	.	.	.	.	.	.	.	.	.	.	.	.	.	.	.	.	8r	.	.	.	.	.
.	.	.	.	.	.	16dd\JJ)	.	.	.	.	.	.	.	.	.	.	.	.	.	.	.	.	.	.	.	.	.	.	.	.	.	.
!	!	!	!	!	!	!LO:LB:g=original	!	!	!	!	!	!	!	!	!	!	!	!	!	!	!	!	!	!	!	!	!	!	!	!	!	!
*	*	*	*	*	*	*	*	*	*	*	*	*	*	*	*	*	*	*	*	*	*	*	*	*	*	*	*2\right	*	*	*	*	*
8F\L	5 3	.	.	8a/L	.	(16ff\LL	.	.	4.F\	Sa-	.	.	4.c\	.	Sa-	Sa-	4.a\	Sa-	.	.	4.ee-\	Sa-	.	2f/	.	.	2cc\	.	2cc\	.	2ee-\	.
.	.	.	.	.	.	16ee-\)	.	.	.	.	.	.	.	.	.	.	.	.	.	.	.	.	.	.	.	.	.	.	.	.	.	.
8F\	.	.	.	8a/	.	16ee-|\	.	.	.	.	.	.	.	.	.	.	.	.	.	.	.	.	.	.	.	.	.	.	.	.	.	.
.	.	.	.	.	.	16ee-|\JJ	.	.	.	.	.	.	.	.	.	.	.	.	.	.	.	.	.	.	.	.	.	.	.	.	.	.
8F\	.	.	.	8a/	.	(16ff\LL	.	.	.	.	.	.	.	.	.	.	.	.	.	.	.	.	.	.	.	.	.	.	.	.	.	.
.	.	.	.	.	.	16ee-\)	.	.	.	.	.	.	.	.	.	.	.	.	.	.	.	.	.	.	.	.	.	.	.	.	.	.
8F\J	.	.	.	8a/J	.	16dd|\	.	.	8F\	-ba-	.	.	8A\	.	-ba-	-ba-	8a\	-ba-	.	.	8ee-\	-ba-	.	.	.	.	.	.	.	.	.	.
.	.	.	.	.	.	16ee-|\JJ	.	.	.	.	.	.	.	.	.	.	.	.	.	.	.	.	.	.	.	.	.	.	.	.	.	.
*Xtremolo	*	*	*	*Xtremolo	*	*	*	*	*	*	*	*	*	*	*	*	*	*	*	*	*	*	*	*	*	*	*	*	*	*	*	*
!	!	!	!	!	!	!	!	!	!LO:LB:g=original	!	!	!	!LO:LB:g=original	!	!	!	!LO:LB:g=original	!	!	!	!	!	!	!	!	!	!	!	!LO:LB:g=original	!	!	!
!!LO:MO:end
!!LO:MO:mod
!! =6	=6	=6	=6	=6	=6	=6	=6	=6	=6	=6	=6	=6	=6	=6	=6	=6	=6	=6	=6	=6	=6	=6	=6	=6	=6	=6	=6	=6	=6	=6	=6	=6
!! *tremolo	*	*	*	*tremolo	*	*	*	*	*	*	*	*	*	*	*	*	*	*	*	*	*	*	*	*	*	*	*	*	*	*	*	*
!! *2\right	*	*	*	*	*	*	*	*	*	*	*	*	*	*	*	*	*	*	*	*	*	*	*	*	*	*	*	*	*	*	*	*
!! !	!	!	!	!	!	!	!	!	!	!	!	!	!	!	!	!	!	!	!	!	!	!	!	!	!	!	!	!	!	!	!	!
!! 8F\L	6 4	.	.	8b-\L	.	(16ee-\LL	.	.	4F\	De-	.	.	4B-\	.	De-	De-	4f\	De-	.	.	4dd\	De-	.	8b-\	.	.	8dd\	.	4b-\	.	4dd\	.
!! .	.	.	.	.	.	16dd\)	.	.	.	.	.	.	.	.	.	.	.	.	.	.	.	.	.	.	.	.	.	.	.	.	.	.
!! 8F\	.	.	.	8b-\	.	16dd|\	.	.	.	.	.	.	.	.	.	.	.	.	.	.	.	.	.	8r	.	.	8r	.	.	.	.	.
!! .	.	.	.	.	.	16dd|\JJ	.	.	.	.	.	.	.	.	.	.	.	.	.	.	.	.	.	.	.	.	.	.	.	.	.	.
!! 8F\	.	.	.	8b-\	.	16dd|\LL	.	.	4F\	-us	.	.	4B-\	.	-us	-us	4f\	-us	.	.	4dd\	-us	.	8b-\	.	.	8dd\	.	4dd\	.	4ff\	.
!! .	.	.	.	.	.	16ff|\	.	.	.	.	.	.	.	.	.	.	.	.	.	.	.	.	.	.	.	.	.	.	.	.	.	.
!! 8F\J	.	.	.	8b-\J	.	(16bb-\	.	.	.	.	.	.	.	.	.	.	.	.	.	.	.	.	.	8r	.	.	8r	.	.	.	.	.
!! .	.	.	.	.	.	16dd\JJ)	.	.	.	.	.	.	.	.	.	.	.	.	.	.	.	.	.	.	.	.	.	.	.	.	.	.
!! !	!	!	!	!	!	!LO:LB:g=original	!	!	!	!	!	!	!	!	!	!	!	!	!	!	!	!	!	!	!	!	!	!	!	!	!	!
!! *	*	*	*	*	*	*	*	*	*	*	*	*	*	*	*	*	*	*	*	*	*	*	*	*	*	*	*2\right	*	*	*	*	*
!! 8F\L	5 3	.	.	8a/L	.	(16ff\LL	.	.	4.F\	Sa-	.	.	4.c\	.	Sa-	Sa-	4.a\	Sa-	.	.	4.ee-\	Sa-	.	2f/	.	.	2cc\	.	2cc\	.	2ee-\	.
!! .	.	.	.	.	.	16ee-\)	.	.	.	.	.	.	.	.	.	.	.	.	.	.	.	.	.	.	.	.	.	.	.	.	.	.
!! 8F\	.	.	.	8a/	.	16ee-|\	.	.	.	.	.	.	.	.	.	.	.	.	.	.	.	.	.	.	.	.	.	.	.	.	.	.
!! .	.	.	.	.	.	16ee-|\JJ	.	.	.	.	.	.	.	.	.	.	.	.	.	.	.	.	.	.	.	.	.	.	.	.	.	.
!! 8F\	.	.	.	8a/	.	(16ff\LL	.	.	.	.	.	.	.	.	.	.	.	.	.	.	.	.	.	.	.	.	.	.	.	.	.	.
!! .	.	.	.	.	.	16ee-\)	.	.	.	.	.	.	.	.	.	.	.	.	.	.	.	.	.	.	.	.	.	.	.	.	.	.
!! 8F\J	.	.	.	8a/J	.	16dd|\	.	.	8F\	-ba-	.	.	8A\	.	-ba-	-ba-	8a\	-ba-	.	.	8ee-\	-ba-	.	.	.	.	.	.	.	.	.	.
!! .	.	.	.	.	.	16ee-|\JJ	.	.	.	.	.	.	.	.	.	.	.	.	.	.	.	.	.	.	.	.	.	.	.	.	.	.
!! *Xtremolo	*	*	*	*Xtremolo	*	*	*	*	*	*	*	*	*	*	*	*	*	*	*	*	*	*	*	*	*	*	*	*	*	*	*	*
!! !	!	!	!	!	!	!	!	!	!LO:LB:g=original	!	!	!	!LO:LB:g=original	!	!	!	!LO:LB:g=original	!	!	!	!	!	!	!	!	!	!	!	!LO:LB:g=original	!	!	!
!!LO:MO:end
=7	=7	=7	=7	=7	=7	=7	=7	=7	=7	=7	=7	=7	=7	=7	=7	=7	=7	=7	=7	=7	=7	=7	=7	=7	=7	=7	=7	=7	=7	=7	=7	=7
!!LO:MO:ori
!	!	!	!	!	!	!	!	!	!	!	!	!	!	!	!	!	!	!	!	!	!	!	!	!	!	!	!	!	!LO:TX:t=P:problem=nadmiarowy takt	!	!	!
1ryy	.	.	.	1ryy	.	1ryy	.	.	1ryy	.	.	.	1ryy	.	.	.	1ryy	.	.	.	1ryy	.	.	1ryy	.	.	1ryy	.	4b-\	.	1ryy	.
.	.	.	.	.	.	.	.	.	.	.	.	.	.	.	.	.	.	.	.	.	.	.	.	.	.	.	.	.	4dd\	.	.	.
.	.	.	.	.	.	.	.	.	.	.	.	.	.	.	.	.	.	.	.	.	.	.	.	.	.	.	.	.	2cc\	.	.	.
=8	=8	=8	=8	=8	=8	=8	=8	=8	=8	=8	=8	=8	=8	=8	=8	=8	=8	=8	=8	=8	=8	=8	=8	=8	=8	=8	=8	=8	=8	=8	=8	=8
!!LO:MO:end
*tremolo	*	*	*	*	*	*	*	*	*	*	*	*	*	*	*	*	*	*	*	*	*	*	*	*	*	*	*	*	*	*	*	*
!	!	!	!	!	!	!	!	!	!	!	!	!	!	!	!	!	!	!LO:MO:mod=-oth,	!	!	!	!LO:MO:mod=-oth,	!	!	!	!	!	!	!	!	!	!
!	!	!	!	!	!	!	!	!	!	!LO:MO:mod=-oth,	!	!	!	!	!	!	!	!	!	!	!	!	!	!	!	!	!	!	!	!	!	!
8F\L	6 4	.	.	2b-\	.	16ee-\LL	.	.	8BB-/	-[oth]	.	.	8B-\	.	-oth	-oth,	8f\	-oth	.	.	8dd\	-oth	.	4b-\	.	.	4dd\	.	4b-\	.	4dd\	.
.	.	.	.	.	.	16dd\	.	.	.	.	.	.	.	.	.	.	.	.	.	.	.	.	.	.	.	.	.	.	.	.	.	.
8F\	.	.	.	.	.	16dd\	.	.	8r	.	.	.	8r	.	.	.	8r	.	.	.	8r	.	.	.	.	.	.	.	.	.	.	.
.	.	.	.	.	.	16dd\JJ	.	.	.	.	.	.	.	.	.	.	.	.	.	.	.	.	.	.	.	.	.	.	.	.	.	.
8F\	.	.	.	.	.	16r	.	.	4r	.	.	.	4r	.	.	.	4r	.	.	.	4r	.	.	4r	.	.	4r	.	4r	.	4r	.
.	.	.	.	.	.	16dd\LL	.	.	.	.	.	.	.	.	.	.	.	.	.	.	.	.	.	.	.	.	.	.	.	.	.	.
8F\J	.	.	.	.	.	16cc#X\	.	.	.	.	.	.	.	.	.	.	.	.	.	.	.	.	.	.	.	.	.	.	.	.	.	.
.	.	.	.	.	.	16dd\JJ	.	.	.	.	.	.	.	.	.	.	.	.	.	.	.	.	.	.	.	.	.	.	.	.	.	.
*	*	*	*	*tremolo	*	*	*	*	*	*	*	*	*	*	*	*	*	*	*	*	*	*	*	*	*	*	*	*	*	*	*	*
!	!	!	!	!	!	!	!	!	!LO:SIC:o=4F\:v	!	!	!	!	!	!	!	!	!	!	!	!	!	!	!	!	!	!	!	!	!	!	!
!	!	!	!	!	!	!	!	!	!	!LO:MO:mod=Do-	!	!	!	!	!	!	!	!	!	!	!	!	!	!	!	!	!	!	!	!	!	!
8F#\L	6 5	.	.	8aL 8d/	.	16dd\LL	.	.	4F#\	Don-	.	.	4d\	.	San-	[Do-	4a\	Do-	.	.	4cc\	Do-	.	4d/	.	.	4dd\	.	2r	.	2dd\	.
.	.	.	.	.	.	16ccn\	.	.	.	.	.	.	.	.	.	.	.	.	.	.	.	.	.	.	.	.	.	.	.	.	.	.
8F#\	.	.	.	8a 8d/	.	16cc\	.	.	.	.	.	.	.	.	.	.	.	.	.	.	.	.	.	.	.	.	.	.	.	.	.	.
.	.	.	.	.	.	16cc\JJ	.	.	.	.	.	.	.	.	.	.	.	.	.	.	.	.	.	.	.	.	.	.	.	.	.	.
!	!	!	!	!	!	!	!	!	!LO:SIC:o=8F\:v	!	!	!	!	!	!	!	!	!	!	!	!LO:LB:g=original	!	!	!	!	!	!	!	!	!	!	!
8F#\	.	.	.	8a 8d/	.	16r	.	.	8F#\	-mi-	.	.	8d\	.	.	-mi-	8a\	-mi-	.	.	8cc\	-mi-	.	8d/L	.	.	8dd\L	.	.	.	.	.
.	.	.	.	.	.	16cc|\LL	.	.	.	.	.	.	.	.	.	.	.	.	.	.	.	.	.	.	.	.	.	.	.	.	.	.
!	!	!	!	!	!	!	!	!	!LO:SIC:o=8F\:v	!	!	!	!	!	!	!	!	!	!	!	!	!	!	!	!	!	!	!	!	!	!	!
8F#\J	.	.	.	8aJ 8d/	.	(16dd\	.	.	8F#\	-nus	.	.	8d\	.	-ctus	-nus	8a\	-nus	.	.	8cc\	-nus	.	8d/J	.	.	8dd\J	.	.	.	.	.
.	.	.	.	.	.	16cc\JJ)	.	.	.	.	.	.	.	.	.	.	.	.	.	.	.	.	.	.	.	.	.	.	.	.	.	.
*Xtremolo	*	*	*	*	*	*	*	*	*	*	*	*	*	*	*	*	*	*	*	*	*	*	*	*	*	*	*	*	*	*	*	*
!	!	!	!	!	!	!	!	!	!	!	!	!	!	!	!	!	!	!	!	!	!	!	!	!	!	!	!	!	!	!	!LO:LB:g=original	!
=9	=9	=9	=9	=9	=9	=9	=9	=9	=9	=9	=9	=9	=9	=9	=9	=9	=9	=9	=9	=9	=9	=9	=9	=9	=9	=9	=9	=9	=9	=9	=9	=9
!	!	!	!	!	!	!	!	!	!	!	!	!	!	!	!	!LO:MO:mod=*null:null	!	!	!	!	!	!	!	!	!	!	!	!	!	!	!	!
*tremolo	*	*	*	*	*	*	*	*	*	*	*	*	*	*	*ij	*ij	*	*	*	*	*	*	*	*	*	*	*	*	*	*	*	*
!	!	!	!	!	!	!	!	!	!	!LO:MO:mod=De-	!	!	!	!	!	!	!	!	!	!	!	!	!	!	!	!	!	!	!	!	!	!
8G\L	5 3_	.	.	8b-\L	.	16cc\LL	.	.	4G\	[De-]	.	.	4d\	.	San-	De-	4g\	De-	.	.	4b-\	De-	.	8d/	.	.	8dd\	.	4r	.	8dd\	.
.	.	.	.	.	.	16b-\	.	.	.	.	.	.	.	.	.	.	.	.	.	.	.	.	.	.	.	.	.	.	.	.	.	.
8G\	.	.	.	8b-\	.	16b-\	.	.	.	.	.	.	.	.	.	.	.	.	.	.	.	.	.	8r	.	.	8r	.	.	.	8r	.
.	.	.	.	.	.	16b-\JJ	.	.	.	.	.	.	.	.	.	.	.	.	.	.	.	.	.	.	.	.	.	.	.	.	.	.
!	!	!	!	!	!	!	!	!	!	!LO:MO:mod=-us,	!	!	!	!	!	!	!	!LO:MO:mod=-us,	!	!	!	!LO:MO:mod=-us,	!	!	!	!	!	!	!	!	!	!
8G\	6 _	.	.	8b-\	.	16b-\LL	.	.	4G\	-us	.	.	4B-\	.	.	-us,	4g\	-us	.	.	4ee-\	-us	.	4r	.	.	4r	.	4b-\	.	4r	.
.	.	.	.	.	.	16ee-\	.	.	.	.	.	.	.	.	.	.	.	.	.	.	.	.	.	.	.	.	.	.	.	.	.	.
8G\J	.	.	.	8b-\J	.	16ee-\	.	.	.	.	.	.	.	.	.	.	.	.	.	.	.	.	.	.	.	.	.	.	.	.	.	.
.	.	.	.	.	.	16ee-\JJ	.	.	.	.	.	.	.	.	.	.	.	.	.	.	.	.	.	.	.	.	.	.	.	.	.	.
*Xtremolo	*	*	*	*Xtremolo	*	*	*	*	*	*ij	*	*	*	*	*	*	*	*ij	*	*	*	*ij	*	*	*	*	*	*	*	*	*	*
8A\L	6 5	.	.	8cc\L	.	16ee-\LL	.	.	4A\	De-	.	.	4c\	.	.	De-	4f\	De-	.	.	4ee-\	De-	.	2r	.	.	2r	.	4cc\	.	4ee-\	.
.	.	.	.	.	.	16ee-\	.	.	.	.	.	.	.	.	.	.	.	.	.	.	.	.	.	.	.	.	.	.	.	.	.	.
8A\	.	.	.	8cc\	.	16ee-\	.	.	.	.	.	.	.	.	.	.	.	.	.	.	.	.	.	.	.	.	.	.	.	.	.	.
.	.	.	.	.	.	16ee-\JJ	.	.	.	.	.	.	.	.	.	.	.	.	.	.	.	.	.	.	.	.	.	.	.	.	.	.
8B-\	.	.	.	8f\	.	16dd\LL	.	.	4B-\	-us	.	.	4B-\	.	-ctus	-us]	4f\	-us	.	.	4dd\	-us	.	.	.	.	.	.	4b-\	.	4dd\	.
*	*	*	*	*	*	*	*	*	*	*Xij	*	*	*	*	*Xij	*Xij	*	*Xij	*	*	*	*Xij	*	*	*	*	*	*	*	*	*	*
.	.	.	.	.	.	16dd\	.	.	.	.	.	.	.	.	.	.	.	.	.	.	.	.	.	.	.	.	.	.	.	.	.	.
8B-\J	.	.	.	8f\J	.	16dd\	.	.	.	.	.	.	.	.	.	.	.	.	.	.	.	.	.	.	.	.	.	.	.	.	.	.
.	.	.	.	.	.	16dd\JJ	.	.	.	.	.	.	.	.	.	.	.	.	.	.	.	.	.	.	.	.	.	.	.	.	.	.
!	!	!	!	!	!	!	!	!	!	!	!	!	!	!	!	!	!	!	!	!	!	!	!	!	!	!	!LO:LB:g=original	!	!	!	!	!
=10	=10	=10	=10	=10	=10	=10	=10	=10	=10	=10	=10	=10	=10	=10	=10	=10	=10	=10	=10	=10	=10	=10	=10	=10	=10	=10	=10	=10	=10	=10	=10	=10
!!LO:MO:ori
*	*	*	*	*tremolo	*	*	*	*	*	*	*	*	*	*	*	*	*	*	*	*	*	*	*	*	*	*	*	*	*	*	*	*
!LO:TX:t=P:problem=mixed beam	!	!	!	!LO:SIC:o=8aL 8f/:v	!	!	!	!	!	!	!	!	!	!	!	!	!	!	!	!	!	!	!	!	!	!	!	!	!	!	!	!
8c\L	7_	.	.	8gL 8e/	.	32een\LLL	.	.	4.c\	Sa-	.	.	4.c\	.	Sa-	Sa-	4.b-\	Sa-	.	.	4.een\	Sa-	.	4cc\	.	.	4cc\	.	2b-\	.	2eeX\	.
.	.	.	.	.	.	32ff\	.	.	.	.	.	.	.	.	.	.	.	.	.	.	.	.	.	.	.	.	.	.	.	.	.	.
.	.	.	.	.	.	32ee\	.	.	.	.	.	.	.	.	.	.	.	.	.	.	.	.	.	.	.	.	.	.	.	.	.	.
.	.	.	.	.	.	32ff\JJJ	.	.	.	.	.	.	.	.	.	.	.	.	.	.	.	.	.	.	.	.	.	.	.	.	.	.
!	!	!	!	!LO:SIC:o=8a 8f/:v	!	!	!	!	!	!	!	!	!	!	!	!	!	!	!	!	!	!	!	!	!	!	!	!	!	!	!	!
8c\	.	.	.	8g 8e/	.	32gg\LLL	.	.	.	.	.	.	.	.	.	.	.	.	.	.	.	.	.	.	.	.	.	.	.	.	.	.
.	.	.	.	.	.	32aa\	.	.	.	.	.	.	.	.	.	.	.	.	.	.	.	.	.	.	.	.	.	.	.	.	.	.
.	.	.	.	.	.	32gg\	.	.	.	.	.	.	.	.	.	.	.	.	.	.	.	.	.	.	.	.	.	.	.	.	.	.
.	.	.	.	.	.	32aa\JJJ	.	.	.	.	.	.	.	.	.	.	.	.	.	.	.	.	.	.	.	.	.	.	.	.	.	.
!	!	!	!	!	!	!LO:LB:g=original	!	!	!	!	!	!	!	!	!	!	!	!	!	!	!	!	!	!	!	!	!	!	!	!	!	!
!	!	!	!	!LO:SIC:o=8a 8f/:v	!	!	!	!	!	!	!	!	!	!	!	!	!	!	!	!	!	!	!	!	!	!	!	!	!	!	!	!
8C/	.	.	.	8g 8e/	.	16bb-\LL	.	.	.	.	.	.	.	.	.	.	.	.	.	.	.	.	.	8cc\L	.	.	8cc\L	.	.	.	.	.
.	.	.	.	.	.	16gg\	.	.	.	.	.	.	.	.	.	.	.	.	.	.	.	.	.	.	.	.	.	.	.	.	.	.
!	!	!	!	!LO:SIC:o=8aJ 8f/:v	!	!	!	!	!	!	!	!	!	!	!	!	!	!	!	!	!	!	!	!	!	!	!	!	!	!	!	!
8C/J	.	.	.	8gJ 8e/	.	16ff\	.	.	8C/	-ba-	.	.	8c\	.	-ba-	-ba-	8b-\	-ba-	.	.	8ee\	-ba-	.	8cc\J	.	.	8cc\J	.	.	.	.	.
.	X	.	.	.	.	16een\JJ	.	.	.	.	.	.	.	.	.	.	.	.	.	.	.	.	.	.	.	.	.	.	.	.	.	.
*	*	*	*	*Xtremolo	*	*	*	*	*	*	*	*	*	*	*	*	*	*	*	*	*	*	*	*	*	*	*	*	*	*	*	*
!LO:SIC:o=8G\:v	!	!	!	!	!	!LO:TX:t=P:problem=mixed beam	!	!	!	!	!	!	!	!	!	!	!	!	!	!	!LO:SIC:o=8ee\:v	!	!	!	!	!	!	!	!	!	!	!
!	!	!	!	!	!	!	!	!	!	!LO:MO:mod=-oth,	!	!	!	!	!	!	!	!LO:MO:mod=-oth,	!	!	!	!LO:MO:mod=-oth,	!	!	!	!	!	!	!	!	!	!
8F\	.	.	.	8aL 8f/	.	8ff\L	.	.	8F\	-oth	.	.	8c\	.	-oth	-oth,	8a\	-oth	.	.	8ff\	-oth	.	8f/	.	.	2r	.	4a\	.	4ff\	.
8r	.	.	.	8f/J	.	8f/J	.	.	8r	.	.	.	8r	.	.	.	8r	.	.	.	8r	.	.	8r	.	.	.	.	.	.	.	.
4r	.	.	.	4r	.	4r	.	.	8F\	Do-	.	.	8c\	.	Do-	Do-	8a\	Do-	.	.	8ff\	Do-	.	4r	.	.	.	.	4r	.	4r	.
.	.	.	.	.	.	.	.	.	16F\	-mi-	.	.	16c\	.	-mi-	-mi-	16a\	-mi-	.	.	16ff\	-mi-	.	.	.	.	.	.	.	.	.	.
.	.	.	.	.	.	.	.	.	16F\	-nus	.	.	16c\	.	-nus	-nus	16a\	-nus	.	.	16ff\	-nus	.	.	.	.	.	.	.	.	.	.
=11	=11	=11	=11	=11	=11	=11	=11	=11	=11	=11	=11	=11	=11	=11	=11	=11	=11	=11	=11	=11	=11	=11	=11	=11	=11	=11	=11	=11	=11	=11	=11	=11
!!LO:MO:end
!!LO:MO:mod
!! *	*	*	*	*tremolo	*	*	*	*	*	*	*	*	*	*	*	*	*	*	*	*	*	*	*	*	*	*	*	*	*	*	*	*
!! !LO:TX:t=P:problem=mixed beam	!	!	!	!	!	!	!	!	!	!	!	!	!	!	!	!	!	!	!	!	!	!	!	!	!	!	!	!	!	!	!	!
!! 8c\L	7_	.	.	8gL 8e/	.	32een\LLL	.	.	4.c\	Sa-	.	.	4.c\	.	Sa-	Sa-	4.b-\	Sa-	.	.	4.een\	Sa-	.	4cc\	.	.	4cc\	.	2b-\	.	2eeX\	.
!! .	.	.	.	.	.	32ff\	.	.	.	.	.	.	.	.	.	.	.	.	.	.	.	.	.	.	.	.	.	.	.	.	.	.
!! .	.	.	.	.	.	32ee\	.	.	.	.	.	.	.	.	.	.	.	.	.	.	.	.	.	.	.	.	.	.	.	.	.	.
!! .	.	.	.	.	.	32ff\JJJ	.	.	.	.	.	.	.	.	.	.	.	.	.	.	.	.	.	.	.	.	.	.	.	.	.	.
!! !	!	!	!	!	!	!	!	!	!	!	!	!	!	!	!	!	!	!	!	!	!	!	!	!	!	!	!	!	!	!	!	!
!! 8c\	.	.	.	8g 8e/	.	32gg\LLL	.	.	.	.	.	.	.	.	.	.	.	.	.	.	.	.	.	.	.	.	.	.	.	.	.	.
!! .	.	.	.	.	.	32aa\	.	.	.	.	.	.	.	.	.	.	.	.	.	.	.	.	.	.	.	.	.	.	.	.	.	.
!! .	.	.	.	.	.	32gg\	.	.	.	.	.	.	.	.	.	.	.	.	.	.	.	.	.	.	.	.	.	.	.	.	.	.
!! .	.	.	.	.	.	32aa\JJJ	.	.	.	.	.	.	.	.	.	.	.	.	.	.	.	.	.	.	.	.	.	.	.	.	.	.
!! !	!	!	!	!	!	!LO:LB:g=original	!	!	!	!	!	!	!	!	!	!	!	!	!	!	!	!	!	!	!	!	!	!	!	!	!	!
!! !	!	!	!	!	!	!	!	!	!	!	!	!	!	!	!	!	!	!	!	!	!	!	!	!	!	!	!	!	!	!	!	!
!! 8C/	.	.	.	8g 8e/	.	16bb-\LL	.	.	.	.	.	.	.	.	.	.	.	.	.	.	.	.	.	8cc\L	.	.	8cc\L	.	.	.	.	.
!! .	.	.	.	.	.	16gg\	.	.	.	.	.	.	.	.	.	.	.	.	.	.	.	.	.	.	.	.	.	.	.	.	.	.
!! !	!	!	!	!	!	!	!	!	!	!	!	!	!	!	!	!	!	!	!	!	!	!	!	!	!	!	!	!	!	!	!	!
!! 8C/J	.	.	.	8gJ 8e/	.	16ff\	.	.	8C/	-ba-	.	.	8c\	.	-ba-	-ba-	8b-\	-ba-	.	.	8ee\	-ba-	.	8cc\J	.	.	8cc\J	.	.	.	.	.
!! .	X	.	.	.	.	16een\JJ	.	.	.	.	.	.	.	.	.	.	.	.	.	.	.	.	.	.	.	.	.	.	.	.	.	.
!! *	*	*	*	*Xtremolo	*	*	*	*	*	*	*	*	*	*	*	*	*	*	*	*	*	*	*	*	*	*	*	*	*	*	*	*
!! !	!	!	!	!	!	!LO:TX:t=P:problem=mixed beam	!	!	!	!	!	!	!	!	!	!	!	!	!	!	!	!	!	!	!	!	!	!	!	!	!	!
!! 8F\	.	.	.	8aL 8f/	.	8ff\L	.	.	8F\	-oth,	.	.	8c\	.	-oth	-oth,	8a\	-oth,	.	.	8ff\	-oth,	.	8f/	.	.	8f/	.	4a\	.	4ff\	.
!! 8r	.	.	.	8f/J	.	8f/J	.	.	8r	.	.	.	8r	.	.	.	8r	.	.	.	8r	.	.	8r	.	.	8r	.	.	.	.	.
!! 4r	.	.	.	4r	.	4r	.	.	8F\	Do-	.	.	8c\	.	Do-	Do-	8a\	Do-	.	.	8ff\	Do-	.	4r	.	.	4r	.	4r	.	4r	.
!! .	.	.	.	.	.	.	.	.	16F\	-mi-	.	.	16c\	.	-mi-	-mi-	16a\	-mi-	.	.	16ff\	-mi-	.	.	.	.	.	.	.	.	.	.
!! .	.	.	.	.	.	.	.	.	16F\	-nus	.	.	16c\	.	-nus	-nus	16a\	-nus	.	.	16ff\	-nus	.	.	.	.	.	.	.	.	.	.
!! =11	=11	=11	=11	=11	=11	=11	=11	=11	=11	=11	=11	=11	=11	=11	=11	=11	=11	=11	=11	=11	=11	=11	=11	=11	=11	=11	=11	=11	=11	=11	=11	=11
!!LO:MO:end
1r	.	.	.	1r	.	2r	.	.	8F\	De-	.	.	8c\	.	De-	De-	8f\	De-	.	.	8ee-X\	De-	.	1r	.	.	1r	.	1r	.	2r	.
.	.	.	.	.	.	.	.	.	8F\	-us	.	.	16A\LL	.	-us	-us	8f\	-us	.	.	16cc\LL	-us	.	.	.	.	.	.	.	.	.	.
.	.	.	.	.	.	.	.	.	.	.	.	.	16c\JJ	.	.	.	.	.	.	.	16ee-\JJ	.	.	.	.	.	.	.	.	.	.	.
.	.	.	.	.	.	.	.	.	8B-\	Sa-	.	.	16c\LL	.	Sa-	Sa-	8.f\	Sa-	.	.	16ee-\LL	Sa-	.	.	.	.	.	.	.	.	.	.
.	.	.	.	.	.	.	.	.	.	.	.	.	16B-\JJ	.	.	.	.	.	.	.	16dd\JJ	.	.	.	.	.	.	.	.	.	.	.
.	.	.	.	.	.	.	.	.	8BB-/	-ba-	.	.	16d\LL	.	-ba-	-ba-	.	.	.	.	16ff\LL	-ba-	.	.	.	.	.	.	.	.	.	.
.	.	.	.	.	.	.	.	.	.	.	.	.	16B-\JJ	.	.	.	16f\	-ba-	.	.	16dd\JJ	.	.	.	.	.	.	.	.	.	.	.
!	!	!	!	!	!	!	!	!	!	!LO:MO:mod=-oth.	!	!	!	!	!	!	!	!LO:MO:mod=-oth.	!	!	!	!LO:MO:mod=-oth.	!	!	!	!	!	!	!	!	!	!
.	.	.	.	.	.	8r	.	.	8F\	-oth	.	.	8A\	.	-oth	-oth.	8f\	-oth	.	.	8cc\	-oth	.	.	.	.	.	.	.	.	8r	.
.	.	.	.	.	.	16r	.	.	8r	.	.	.	8r	.	.	.	8r	.	.	.	8r	.	.	.	.	.	.	.	.	.	16r	.
!	!	!	!	!	!	!	!	!LO:DY:t= :mod=%s	!	!	!	!	!	!	!	!	!	!	!	!	!	!	!	!	!	!	!	!	!	!	!	!LO:DY:t= :mod=%s
!	!	!	!	!	!	!	!	!LO:MO:mod=!LO&colon;DY&colon;ed=brack	!	!	!	!	!	!	!	!	!	!	!	!	!	!	!	!	!	!	!	!	!	!	!	!LO:MO:mod=!LO&colon;DY&colon;ed=brack
!	!	!	!	!	!	!	!	!null	!	!	!	!	!	!	!	!	!	!	!	!	!	!	!	!	!	!	!	!	!	!	!	!null
.	.	.	.	.	.	16f/	.	p	.	.	.	.	.	.	.	.	.	.	.	.	.	.	.	.	.	.	.	.	.	.	16ff\	p
!	!	!	!	!	!	!	!	!	!	!	!	!	!	!	!	!	!	!	!	!	!	!	!	!	!	!	!	!	!	!	!LO:SIC:o=16ee-\LL:v	!
.	.	.	.	.	.	16en/LL	.	.	4r	.	.	.	4r	.	.	.	4r	.	.	.	4r	.	.	.	.	.	.	.	.	.	16een\LL	.
.	.	.	.	.	.	16f/	.	.	.	.	.	.	.	.	.	.	.	.	.	.	.	.	.	.	.	.	.	.	.	.	16ff\	.
!	!	!	!	!	!	!	!	!	!	!	!	!	!	!	!	!	!	!	!	!	!	!	!	!	!	!	!	!	!	!	!LO:SIC:o=16ee-\:v	!
.	.	.	.	.	.	16e/	.	.	.	.	.	.	.	.	.	.	.	.	.	.	.	.	.	.	.	.	.	.	.	.	16ee\	.
.	.	.	.	.	.	16f/JJ	.	.	.	.	.	.	.	.	.	.	.	.	.	.	.	.	.	.	.	.	.	.	.	.	16ff\JJ	.
!LO:LB:g=original	!	!	!	!	!	!	!	!	!	!	!	!	!	!	!	!	!	!	!	!	!	!	!	!LO:LB:g=original	!	!	!	!	!	!	!	!
=12	=12	=12	=12	=12	=12	=12	=12	=12	=12	=12	=12	=12	=12	=12	=12	=12	=12	=12	=12	=12	=12	=12	=12	=12	=12	=12	=12	=12	=12	=12	=12	=12
!!LO:MO:ori
!	!	!	!	!	!LO:DY:t=p.	!	!	!	!	!	!	!	!	!	!	!	!	!	!	!	!	!	!	!	!	!	!	!	!	!LO:DY:a:t=p.	!	!
8F\	.	.	.	16c/LL	p	16e-X/LL	.	.	0r	.	.	.	0r	.	.	.	0r	.	.	.	0r	.	.	4r	.	.	2r	.	16cc\LL	p	16ee-\LL	.
.	.	.	.	16A/	.	16c/	.	.	.	.	.	.	.	.	.	.	.	.	.	.	.	.	.	.	.	.	.	.	16a\	.	16cc\	.
8r	.	.	.	16B-/	.	16d/	.	.	.	.	.	.	.	.	.	.	.	.	.	.	.	.	.	.	.	.	.	.	16b-\	.	16dd\	.
.	.	.	.	16c/JJ	.	16e-/JJ	.	.	.	.	.	.	.	.	.	.	.	.	.	.	.	.	.	.	.	.	.	.	16cc\JJ	.	16ee-\JJ	.
8BB-/	.	.	.	16c/LL	.	16e-/LL	.	.	.	.	.	.	.	.	.	.	.	.	.	.	.	.	.	4r	.	.	.	.	16cc\LL	.	16ee-\LL	.
.	.	.	.	16B-/	.	16d/	.	.	.	.	.	.	.	.	.	.	.	.	.	.	.	.	.	.	.	.	.	.	16b-\	.	16dd\	.
8r	.	.	.	16d/	.	16f/	.	.	.	.	.	.	.	.	.	.	.	.	.	.	.	.	.	.	.	.	.	.	16dd\	.	16ff\	.
.	.	.	.	16B-/JJ	.	16d/JJ	.	.	.	.	.	.	.	.	.	.	.	.	.	.	.	.	.	.	.	.	.	.	16b-\JJ	.	16dd\JJ	.
!	!	!	!	!	!	!	!	!	!	!	!	!	!	!	!	!	!	!	!	!	!	!	!	!	!	!	!	!LO:DY:a:t=p.	!	!	!	!
!	!	!	!	!	!	!	!	!	!	!	!	!	!	!	!	!	!	!	!	!	!	!	!	!	!	!	!	!LO:MO:mod=!null:null 	!	!	!	!
8F\L	.	.	.	8A/L	.	8c/L	.	.	.	.	.	.	.	.	.	.	.	.	.	.	.	.	.	4f/	.	.	8r	p	8f/L	.	8cc\L	.
!	!	!	!	!	!	!	!	!	!	!	!	!	!	!	!	!	!	!	!	!	!	!	!	!	!	!	!	!LO:DY:t= :mod=%s	!	!	!	!
!	!	!	!	!	!	!	!	!	!	!	!	!	!	!	!	!	!	!	!	!	!	!	!	!	!	!	!	!LO:MO:mod=!LO&colon;DY&colon;ed=	!	!	!	!
!	!	!	!	!	!	!	!	!	!	!	!	!	!	!	!	!	!	!	!	!	!	!	!	!	!	!	!	!null	!	!	!	!
8F\	.	.	.	8A/	.	8f/	.	.	.	.	.	.	.	.	.	.	.	.	.	.	.	.	.	.	.	.	8cc\L	p	8f/	.	8ff\	.
8C\	.	.	.	8A/	.	8f/	.	.	.	.	.	.	.	.	.	.	.	.	.	.	.	.	.	8f/L	.	.	8cc\	.	8f/	.	8ee-\	.
8AA\J	.	.	.	8A/J	.	8f/J	.	.	.	.	.	.	.	.	.	.	.	.	.	.	.	.	.	8f/J	.	.	8cc\J	.	8f/J	.	8ff\J	.
=13	=13	=13	=13	=13	=13	=13	=13	=13	=13	=13	=13	=13	=13	=13	=13	=13	=13	=13	=13	=13	=13	=13	=13	=13	=13	=13	=13	=13	=13	=13	=13	=13
!!LO:MO:end
!!LO:MO:mod
!! 8F\	.	.	.	16c/LL	p	16e-X/LL	.	.	0r	.	.	.	0r	.	.	.	0r	.	.	.	0r	.	.	2r	.	.	2r	.	16cc\LL	p	16ee-\LL	.
!! .	.	.	.	16A/	.	16c/	.	.	.	.	.	.	.	.	.	.	.	.	.	.	.	.	.	.	.	.	.	.	16a\	.	16cc\	.
!! 8r	.	.	.	16B-/	.	16d/	.	.	.	.	.	.	.	.	.	.	.	.	.	.	.	.	.	.	.	.	.	.	16b-\	.	16dd\	.
!! .	.	.	.	16c/JJ	.	16e-/JJ	.	.	.	.	.	.	.	.	.	.	.	.	.	.	.	.	.	.	.	.	.	.	16cc\JJ	.	16ee-\JJ	.
!! 8BB-/	.	.	.	16c/LL	.	16e-/LL	.	.	.	.	.	.	.	.	.	.	.	.	.	.	.	.	.	.	.	.	.	.	16cc\LL	.	16ee-\LL	.
!! .	.	.	.	16B-/	.	16d/	.	.	.	.	.	.	.	.	.	.	.	.	.	.	.	.	.	.	.	.	.	.	16b-\	.	16dd\	.
!! 8r	.	.	.	16d/	.	16f/	.	.	.	.	.	.	.	.	.	.	.	.	.	.	.	.	.	.	.	.	.	.	16dd\	.	16ff\	.
!! .	.	.	.	16B-/JJ	.	16d/JJ	.	.	.	.	.	.	.	.	.	.	.	.	.	.	.	.	.	.	.	.	.	.	16b-\JJ	.	16dd\JJ	.
!! !	!	!	!	!	!	!	!	!	!	!	!	!	!	!	!	!	!	!	!	!	!	!	!	!	!	!LO:DY:ed=brack	!	!	!	!	!	!
!! 8F\L	.	.	.	8A/L	.	8c/L	.	.	.	.	.	.	.	.	.	.	.	.	.	.	.	.	.	4f/	.	p	8r	.	8f/L	.	8cc\L	.
!! 8F\	.	.	.	8A/	.	8f/	.	.	.	.	.	.	.	.	.	.	.	.	.	.	.	.	.	.	.	.	8cc\L	p	8f/	.	8ff\	.
!! 8C\	.	.	.	8A/	.	8f/	.	.	.	.	.	.	.	.	.	.	.	.	.	.	.	.	.	8f/L	.	.	8cc\	.	8f/	.	8ee-\	.
!! 8AA\J	.	.	.	8A/J	.	8f/J	.	.	.	.	.	.	.	.	.	.	.	.	.	.	.	.	.	8f/J	.	.	8cc\J	.	8f/J	.	8ff\J	.
!! =13	=13	=13	=13	=13	=13	=13	=13	=13	=13	=13	=13	=13	=13	=13	=13	=13	=13	=13	=13	=13	=13	=13	=13	=13	=13	=13	=13	=13	=13	=13	=13	=13
!!LO:MO:end
!	!	!	!	!	!	!LO:SIC:o=2f/:v	!	!	!	!	!	!	!	!	!	!	!	!	!	!	!	!	!	!LO:SIC:o=2f/:v	!	!	!LO:SIC:o=2cc\:v	!	!LO:SIC:o=2a\:v	!	!LO:SIC:o=2ff\:v	!
2FF;/	.	.	.	2A;/	.	2f/;	.	.	.	.	.	.	.	.	.	.	.	.	.	.	.	.	.	2f/;	.	.	2cc\;	.	2a\;	.	2ff\;	.
2r	.	.	.	2r	.	2r	.	.	.	.	.	.	.	.	.	.	.	.	.	.	.	.	.	2r	.	.	2r	.	2r	.	2r	.
==	==	==	==	==	==	==	==	==	==	==	==	==	==	==	==	==	==	==	==	==	==	==	==	==	==	==	==	==	==	==	==	==
*-	*-	*-	*-	*-	*-	*-	*-	*-	*-	*-	*-	*-	*-	*-	*-	*-	*-	*-	*-	*-	*-	*-	*-	*-	*-	*-	*-	*-	*-	*-	*-	*-
!!!system-decoration: [(g1)][(g2)][(g3)][(g4)]s11
!!!RDF**kern: | = vertical stroke
!!!filter-modern: sic -sq | shed -e "s/LO:DY:(a|b|rj)/LO:dy:$1/L" | shed -e "s/TX(.*):t=P:/tx$1:t=P:/LG" | modori -m | autostem -r | shed -e "s/yy//" | shed -k -e "s/\(y([^y])/($1/" | shed -e "s/-//B" | shed -e "s/^(\d+[\/\\]right)/$1yy/I; s/^(\d+[\/\\]left)/$1yy/I" | shed -e "s/^(X?)rep$/$1REP/I" | shed -k -e "s/[<>]//g" | shed -k -e "s/:TUP:/:tup:/L" | shed -k -e "s/r[a-gA-G]+/r/D"
!!!ENC: Marta Opryszak
!!!END: 2021-11-24
!!!EED: Marta Lawrence
!!!EEV: 2021-12-01
!!!EED-modern: Antoni Szymański
!!!END-modern: 2022-08-25
